iphone/Maps/Images.xcassets/Interface/Search/Categories/secondhand.imageset/secondhand_dark.svg

<svg height="28" viewBox="0 0 28 28" width="28" xmlns="http://www.w3.org/2000/svg"><g fill="none" opacity=".898664"><circle cx="14" cy="14" fill="#8c5f93" fill-rule="evenodd" r="14"/><path d="m13.9999526 5c-2.1466666 0-3.8896666 1.743-3.8896666 3.88966667h-1.55400003c-.85555167 0-1.54945.69848333-1.54945 1.55400003l-.00683597 9.3333333c0 .8555517.70075833 1.5563333 1.55633333 1.5563333h10.88733337c.8555516 0 1.5563333-.7007583 1.5563333-1.5563333v-9.3333333c0-.8555517-.7007583-1.55400003-1.5563333-1.55400003h-1.554c0-2.14666667-1.743-3.88966667-3.8896667-3.88966667zm0 1.55633333c1.29115 0 2.3333334 1.04221834 2.3333334 2.33333334h-4.6666667c0-1.29115 1.0422183-2.33333334 2.3333333-2.33333334zm-.56511 3.95348337c.0600413-.0069579.1202605.0114731.1661221.0508442.0458617.039371.0731988.0961049.0754129.1565074l.0387369 1.111985c.0033849.1098037-.0759196.2047736-.1845667.221025-.62468.094451-1.2255833.381255-1.7067167.8658884-1.1215633 1.1296833-1.1764666 2.9078-.19824 4.1266166l1.0595667-1.0664033c.0619856-.061316.1546788-.0795185.2352488-.0461966.08057.033322.133328.1116797.1338962.1988666l.0068355 3.1194333c.000008.0594177-.0243784.116233-.0674555.1571575-.0430772.0409245-.1010669.0623689-.1604062.0593175l-2.94629997-.1595066c-.08554145-.0040646-.16066839-.0581181-.19170792-.1379329-.03103953-.0798149-.01217055-.1704228.04814959-.2312121l.7975217-.806645c-1.57033337-1.8226834-1.51445003-4.5740334.2005266-6.3004667.7542384-.75985 1.708-1.1998 2.6933667-1.3193833zm1.73635.2460966 2.9463.1617817c.0851317.0049023.1594772.0592691.1899553.138909.0304782.0796399.0114242.1697506-.0486836.230236l-.7975217.8043583c1.5717334 1.8216334 1.5188834 4.57485-.195965 6.3026834-.0007595-.000004-.001519-.000004-.0022785 0-.754985.759465-1.7105666 1.1974666-2.6955833 1.31705-.0600413.0069578-.1202605-.0114732-.1661221-.0508442-.0458616-.0393711-.0731988-.096105-.0754129-.1565075l-.0364583-1.1096983c-.0033849-.1098037.0759195-.2047736.1845666-.221025.624225-.0943822 1.2237167-.3834484 1.7043834-.8681634.0007595.000004.001519.000004.0022785 0 1.1215633-1.128715 1.1767-2.90465.19824-4.1244l-1.0595667 1.0664034c-.0619856.061316-.1546788.0795184-.2352488.0461965s-.133328-.1116797-.1338962-.1988665l-.0068355-3.1217667c-.000008-.0594176.0243784-.1162329.0674555-.1571574.0430772-.0409245.1010669-.0623689.1604062-.0593176z" fill="#000"/></g></svg>

<?xml version="1.0" encoding="UTF-8"?>
<svg width="28px" height="28px" viewBox="0 0 28 28" version="1.1" xmlns="http://www.w3.org/2000/svg" xmlns:xlink="http://www.w3.org/1999/xlink">
    <title>secondhand_dark</title>
    <g id="secondhand_dark" stroke="none" fill="none" fill-rule="evenodd">
        <path d="M14,0 C21.7319865,0 28,6.2680135 28,14 C28,21.7319865 21.7319865,28 14,28 C6.2680135,28 0,21.7319865 0,14 C0,6.2680135 6.2680135,0 14,0 Z M14,5 C11.853286,5 10.110286,6.743 10.110286,8.88966667 L8.55628597,8.88966667 C7.7007343,8.88966667 7.00683597,9.58815 7.00683597,10.4436667 L7,19.777 C7,20.6325517 7.70075833,21.3333333 8.55633333,21.3333333 L19.4436667,21.3333333 C20.2992183,21.3333333 21,20.632575 21,19.777 L21,10.4436667 C21,9.588115 20.2992417,8.88966667 19.4436667,8.88966667 L17.8896667,8.88966667 C17.8896667,6.743 16.1466667,5 14,5 Z M15.1712055,10.755785 L18.1174926,10.917695 C18.2026243,10.9225973 18.2769698,10.9769641 18.3074479,11.056604 C18.3379261,11.1362439 18.3188721,11.2263546 18.2587643,11.28684 L17.4612426,12.0911983 C19.032976,13.9128317 18.980126,16.6660483 17.2652776,18.3938817 C16.5080141,19.1533467 15.5524325,19.5913483 14.5674158,19.7109317 C14.5073745,19.7178895 14.4471553,19.6994585 14.4012937,19.6600875 C14.3554321,19.6207164 14.3280949,19.5639825 14.3258808,19.50358 L14.2894225,18.3938817 C14.2860376,18.284078 14.365342,18.1891081 14.4739891,18.1728567 C15.0982141,18.0784745 15.6977058,17.7894083 16.1783725,17.3046933 C17.3022143,16.1759783 17.357351,14.4000433 16.378891,13.1802933 L15.3193243,14.2466967 C15.2573387,14.3080127 15.1646455,14.3262151 15.0840755,14.2928932 C15.0035055,14.2595713 14.9507475,14.1812135 14.9501793,14.0940267 L14.9433438,10.97226 C14.9433358,10.9128424 14.9677222,10.8560271 15.0107993,10.8151026 C15.0538765,10.7741781 15.1118662,10.7527337 15.1712055,10.755785 Z M13.4348333,10.5097117 C13.4948839,10.5028588 13.5551031,10.5212898 13.6009647,10.5606609 C13.6468264,10.6000319 13.6741635,10.6567658 13.6763776,10.7171683 L13.7151145,11.8291533 C13.7184994,11.938957 13.6391949,12.0339269 13.5305478,12.0501783 C12.9058678,12.1446293 12.3049645,12.4314333 11.8238311,12.9160667 C10.7022678,14.04575 10.6473645,15.8238667 11.6255911,17.0426833 L12.6851578,15.97628 C12.7471434,15.914964 12.8398366,15.8967615 12.9204066,15.9300834 C13.0009766,15.9634054 13.0537346,16.0417631 13.0543028,16.12895 L13.0611383,19.2483833 C13.0611463,19.307801 13.0367599,19.3646163 12.9936828,19.4055408 C12.9506056,19.4464653 12.8926159,19.4679097 12.8332766,19.4648583 L9.88697663,19.3053517 C9.80143518,19.3012871 9.72630824,19.2472336 9.69526871,19.1674188 C9.66422918,19.0876039 9.68309816,18.996996 9.7434183,18.9362067 L10.54094,18.1295617 C8.97060663,16.3068783 9.02648997,13.5555283 10.7414666,11.829095 C11.495705,11.069245 12.4494666,10.629295 13.4348333,10.5097117 Z M13.9999526,6.55633333 C15.2911026,6.55633333 16.333286,7.59855167 16.333286,8.88966667 L11.6666193,8.88966667 C11.6666193,7.59851667 12.7088376,6.55633333 13.9999526,6.55633333 Z" id="Shape" fill="#8C5F93"></path>
    </g>
</svg>
